www/assets/icons/emoji_events.svg

<svg xmlns="http://www.w3.org/2000/svg" width="24" height="24" viewBox="0 0 24 24" fill='currentColor'><path d="M19 5h-2V3H7v2H5c-1.1 0-2 .9-2 2v1c0 2.55 1.92 4.63 4.39 4.94A5.01 5.01 0 0 0 11 15.9V19H7v2h10v-2h-4v-3.1a5.01 5.01 0 0 0 3.61-2.96C19.08 12.63 21 10.55 21 8V7c0-1.1-.9-2-2-2M5 8V7h2v3.82C5.84 10.4 5 9.3 5 8m14 0c0 1.3-.84 2.4-2 2.82V7h2z"/></svg>

<svg width="24" height="24" viewBox="0 0 24 24" xmlns="http://www.w3.org/2000/svg" fill='currentColor'><path d="M19 5H17V3H7V5H5C3.9 5 3 5.9 3 7V8C3 10.55 4.92 12.63 7.39 12.94C8.02 14.44 9.37 15.57 11 15.9V19H7V21H17V19H13V15.9C14.63 15.57 15.98 14.44 16.61 12.94C19.08 12.63 21 10.55 21 8V7C21 5.9 20.1 5 19 5ZM5 8V7H7V10.82C5.84 10.4 5 9.3 5 8ZM19 8C19 9.3 18.16 10.4 17 10.82V7H19V8Z"/></svg>
